icons/outline/filter-2-search.svg

<svg width="24" height="24" viewBox="0 0 24 24" fill="none" xmlns="http://www.w3.org/2000/svg">
<path d="M4 6H20" stroke="black" stroke-width="2" stroke-linecap="round" stroke-linejoin="round"/>
<path d="M6 12H14.5" stroke="black" stroke-width="2" stroke-linecap="round" stroke-linejoin="round"/>
<path d="M9 18H11" stroke="black" stroke-width="2" stroke-linecap="round" stroke-linejoin="round"/>
<path d="M15 18C15 18.7956 15.3161 19.5587 15.8787 20.1213C16.4413 20.6839 17.2044 21 18 21C18.7956 21 19.5587 20.6839 20.1213 20.1213C20.6839 19.5587 21 18.7956 21 18C21 17.2044 20.6839 16.4413 20.1213 15.8787C19.5587 15.3161 18.7956 15 18 15C17.2044 15 16.4413 15.3161 15.8787 15.8787C15.3161 16.4413 15 17.2044 15 18Z" stroke="black" stroke-width="2" stroke-linecap="round" stroke-linejoin="round"/>
<path d="M20.2 20.2L22 22" stroke="black" stroke-width="2" stroke-linecap="round" stroke-linejoin="round"/>
</svg>

<!--
category: Sytem
-->
<svg
  xmlns="http://www.w3.org/2000/svg"
  width="24"
  height="24"
  viewBox="0 0 24 24"
  fill="none"
  stroke="currentColor"
  stroke-width="2"
  stroke-linecap="round"
  stroke-linejoin="round"
>
  <path d="M4 6h16" stroke="black" stroke-width="2" stroke-linecap="round" stroke-linejoin="round" />
  <path d="M6 12h8.5" stroke="black" stroke-width="2" stroke-linecap="round" stroke-linejoin="round" />
  <path d="M9 18h2" stroke="black" stroke-width="2" stroke-linecap="round" stroke-linejoin="round" />
  <path d="M15 18c0 .796 .316 1.559 .879 2.121c.563 .563 1.326 .879 2.121 .879c.796 0 1.559 -.316 2.121 -.879c.563 -.563 .879 -1.326 .879 -2.121c0 -.796 -.316 -1.559 -.879 -2.121c-.563 -.563 -1.326 -.879 -2.121 -.879c-.796 0 -1.559 .316 -2.121 .879c-.563 .563 -.879 1.326 -.879 2.121z" stroke="black" stroke-width="2" stroke-linecap="round" stroke-linejoin="round" />
  <path d="M20.2 20.2l1.8 1.8" stroke="black" stroke-width="2" stroke-linecap="round" stroke-linejoin="round" />
</svg>
